btlcenter/img/icon_girl.svg

<svg fill="none" height="52" viewBox="0 0 46 52" width="46" xmlns="http://www.w3.org/2000/svg"><g fill="#000"><path d="m24.8109 5.58594-4.9565-.87527c-.4695-.08283-.9438.11734-1.2119.51162l-1.9612 2.88385c-1.6491 2.42686-4.1241 4.15826-6.96923 4.87546-.64858.1635-1.04177.8218-.8783 1.4702.13841.5493.63151.9152 1.17333.9152.0979 0 .1976-.0118.297-.0371 3.4213-.8624 6.3974-2.9443 8.3802-5.86231l1.5204-2.23575 4.1851.73903c.6584.11601 1.2868-.32332 1.403-.98182.1163-.65875-.3233-1.28686-.9819-1.40311z"/><path d="m33.5985 46.6532c-.0158-.0763-.0388-.1526-.0691-.2265-.0302-.0726-.0678-.1429-.1114-.2083-.0448-.0666-.0956-.1283-.1513-.184s-.1175-.1066-.1841-.1514c-.0654-.0436-.1356-.0811-.2083-.1114-.0739-.0303-.1501-.0533-.2264-.069-.1562-.0315-.3173-.0315-.4735 0-.0775.0157-.1538.0387-.2265.069-.0738.0303-.1441.0678-.2095.1114-.0666.0448-.1283.0957-.184.1514s-.1066.1174-.1502.184c-.0436.0654-.0811.1357-.1114.2083-.0302.0739-.0533.1502-.069.2265-.0157.0787-.0242.1587-.0242.2373 0 .0787.0085.1586.0242.2361s.0388.1538.069.2265c.0303.0738.0678.1441.1114.2095.0436.0666.0945.1283.1502.184s.1174.1066.184.1502c.0654.0435.1357.0811.2095.1114.0727.0303.149.0532.2265.069s.1574.0241.2361.0241.1587-.0083.2374-.0241c.0763-.0158.1525-.0387.2264-.069.0727-.0303.1429-.0679.2083-.1114.0666-.0436.1284-.0945.1841-.1502s.1065-.1174.1513-.184c.0436-.0654.0799-.1357.1102-.2095.0303-.0726.0545-.149.0703-.2265.0157-.0773.023-.1574.023-.2361 0-.0786-.0073-.1586-.023-.2373z"/><path d="m44.6452 36.0631c-.2607-.2299-.6079-.3362-.9524-.2933-.714.0902-2.3979.0409-3.0451-.6857-.3389-.3804-.4024-1.0146-.1888-1.8848.7366-3.0001.9337-7.8633.9337-8.4106 0-6.8765-1.0208-12.1452-3.1208-16.10713-3.0534-5.76067-8.339-8.68157-15.7097-8.68157-7.3709 0-12.65639 2.9209-15.70989 8.68157-2.10001 3.96193-3.12083 9.23063-3.12083 16.10713 0 .0488.05086 5.0948.86473 8.4105.21325.8687.15052 1.502-.18636 1.8825-.68878.7779-2.4783.7567-3.04732.6882-.34512-.0429-.691691.0633-.952406.2933-.260594.2298-.410024.5606-.410024.9082 0 1.8341 1.05243 4.3745 5.91943 6.3084v7.3368c0 .6687.54213 1.2109 1.21093 1.2109h30.79464c.6688 0 1.2109-.5422 1.2109-1.2109v-7.3368c4.8669-1.934 5.9193-4.4745 5.9193-6.3085 0-.3476-.1493-.6784-.41-.9082zm-7.9311 13.3425h-28.3728v-1.3044h19.0419c.6688 0 1.2109-.5421 1.2109-1.2109 0-.6687-.5421-1.211-1.2109-1.211h-19.0419c.00036-.0163.00036-3.8464 0-3.8626 0-1.2522 1.01876-2.2709 2.2709-2.2709h8.0176c.4531 1.7289 2.0289 3.0082 3.8979 3.0082 1.8689 0 3.4447-1.2793 3.8979-3.0082h8.0176c1.2521 0 2.2709 1.0187 2.2709 2.2709-.0004.0162-.0004 7.5726 0 7.5889zm-16.7026-15.8383c-4.4438-1.1434-7.5473-5.1514-7.5473-9.7466v-3.8048c4.0573-1.2349 7.5966-3.7564 10.0905-7.1953l.9492.1676c5.2656.9297 9.0874 5.4855 9.0874 10.8325-.0001 4.5952-3.1038 8.6032-7.5474 9.7466-.5351.1377-.9092.6201-.9092 1.1728v3.785c0 .8862-.721 1.6071-1.607 1.6071-.8862 0-1.6071-.7209-1.6071-1.6071v-3.785c0-.5527-.374-1.0351-.9091-1.1728zm18.9909 7.1361c-.5011-2.052-2.3552-3.5794-4.5593-3.5794h-7.8865v-1.4821c5.024-1.7065 8.4565-6.4393 8.4565-11.8212 0-6.5243-4.6633-12.0831-11.0881-13.2175l-1.7111-.3021c-.4693-.0826-.9439.1174-1.212.5118l-.1067.1571c-2.3515 3.4605-5.881 5.9295-9.9379 6.9521-.538.1355-.915.6194-.915 1.1741v4.7246c0 5.3819 3.4324 10.1148 8.4565 11.8212v1.4821h-7.8866c-2.20418 0-4.05824 1.5275-4.55933 3.5794-1.2911-.5899-2.6637-1.4305-3.28709-2.5123 1.11285-.0986 2.51766-.4492 3.45008-1.4958.61952-.6954 1.24957-1.9667.73238-4.0735-.73565-2.9968-.79486-7.7871-.79486-7.833 0-6.4713.92867-11.369 2.8388-14.97292 2.63722-4.97538 7.07602-7.39398 13.57002-7.39398s10.9327 2.4186 13.5699 7.39398c1.9102 3.60402 2.8388 8.50162 2.8388 14.97292 0 .7615-.225 5.231-.864 7.833-.5171 2.1067.113 3.3781.7325 4.0735.9324 1.0466 2.3373 1.3972 3.4502 1.4958-.6235 1.0817-1.996 1.9222-3.2872 2.5122z"/><path d="m20.1891 21.8176c-.473-.473-1.2397-.4729-1.7125.0001-.2593.2591-.6039.4019-.9704.4019-.3666 0-.7112-.1426-.9705-.4019-.4727-.4729-1.2395-.4729-1.7125-.0001-.473.473-.473 1.2396-.0001 1.7125.7166.7167 1.6694 1.1115 2.6829 1.1115 1.0136 0 1.9664-.3948 2.6832-1.1115.4729-.473.4728-1.2397-.0001-1.7125z"/><path d="m30.2323 21.8176c-.4729-.4728-1.2397-.4728-1.7125 0-.2593.2592-.6039.402-.9705.402-.3667 0-.7112-.1426-.9704-.4019-.4728-.4729-1.2396-.4729-1.7125-.0001-.473.473-.473 1.2396-.0002 1.7125.7167.7167 1.6694 1.1115 2.683 1.1115 1.0134 0 1.9663-.3948 2.6831-1.1114.473-.4731.4728-1.2398 0-1.7126z"/><path d="m25.2106 28.7354c-.473-.4727-1.2397-.4727-1.7126 0-.535.5351-1.4058.5351-1.9409 0-.4729-.4727-1.2396-.4727-1.7125 0-.473.4731-.4729 1.2398 0 1.7127.7398.7396 1.7114 1.1094 2.6829 1.1094.9717 0 1.9434-.3697 2.6831-1.1094.4729-.473.4729-1.2398 0-1.7127z"/></g></svg>

<svg width="46" height="52" viewBox="0 0 46 52" fill="none" xmlns="http://www.w3.org/2000/svg">
<path d="M24.8109 5.58594L19.8544 4.71067C19.3849 4.62784 18.9106 4.82801 18.6425 5.22229L16.6813 8.10614C15.0322 10.533 12.5572 12.2644 9.71207 12.9816C9.06349 13.1451 8.6703 13.8034 8.83377 14.4518C8.97218 15.0011 9.46528 15.367 10.0071 15.367C10.105 15.367 10.2047 15.3552 10.3041 15.3299C13.7254 14.4675 16.7015 12.3856 18.6843 9.46759L20.2047 7.23184L24.3898 7.97087C25.0482 8.08688 25.6766 7.64755 25.7928 6.98905C25.9091 6.3303 25.4695 5.70219 24.8109 5.58594Z" fill="black"/>
<path d="M33.5985 46.6532C33.5827 46.5769 33.5597 46.5006 33.5294 46.4267C33.4992 46.3541 33.4616 46.2838 33.418 46.2184C33.3732 46.1518 33.3224 46.0901 33.2667 46.0344C33.211 45.9787 33.1492 45.9278 33.0826 45.883C33.0172 45.8394 32.947 45.8019 32.8743 45.7716C32.8004 45.7413 32.7242 45.7183 32.6479 45.7026C32.4917 45.6711 32.3306 45.6711 32.1744 45.7026C32.0969 45.7183 32.0206 45.7413 31.9479 45.7716C31.8741 45.8019 31.8038 45.8394 31.7384 45.883C31.6718 45.9278 31.6101 45.9787 31.5544 46.0344C31.4987 46.0901 31.4478 46.1518 31.4042 46.2184C31.3606 46.2838 31.3231 46.3541 31.2928 46.4267C31.2626 46.5006 31.2395 46.5769 31.2238 46.6532C31.2081 46.7319 31.1996 46.8119 31.1996 46.8905C31.1996 46.9692 31.2081 47.0491 31.2238 47.1266C31.2395 47.2041 31.2626 47.2804 31.2928 47.3531C31.3231 47.4269 31.3606 47.4972 31.4042 47.5626C31.4478 47.6292 31.4987 47.6909 31.5544 47.7466C31.6101 47.8023 31.6718 47.8532 31.7384 47.8968C31.8038 47.9403 31.8741 47.9779 31.9479 48.0082C32.0206 48.0385 32.0969 48.0614 32.1744 48.0772C32.2519 48.093 32.3318 48.1013 32.4105 48.1013C32.4892 48.1013 32.5692 48.093 32.6479 48.0772C32.7242 48.0614 32.8004 48.0385 32.8743 48.0082C32.947 47.9779 33.0172 47.9403 33.0826 47.8968C33.1492 47.8532 33.211 47.8023 33.2667 47.7466C33.3224 47.6909 33.3732 47.6292 33.418 47.5626C33.4616 47.4972 33.4979 47.4269 33.5282 47.3531C33.5585 47.2805 33.5827 47.2041 33.5985 47.1266C33.6142 47.0493 33.6215 46.9692 33.6215 46.8905C33.6215 46.8119 33.6142 46.7319 33.5985 46.6532Z" fill="black"/>
<path d="M44.6452 36.0631C44.3845 35.8332 44.0373 35.7269 43.6928 35.7698C42.9788 35.86 41.2949 35.8107 40.6477 35.0841C40.3088 34.7037 40.2453 34.0695 40.4589 33.1993C41.1955 30.1992 41.3926 25.336 41.3926 24.7887C41.3926 17.9122 40.3718 12.6435 38.2718 8.68157C35.2184 2.9209 29.9328 0 22.5621 0C15.1912 0 9.90571 2.9209 6.85221 8.68157C4.7522 12.6435 3.73138 17.9122 3.73138 24.7887C3.73138 24.8375 3.78224 29.8835 4.59611 33.1992C4.80936 34.0679 4.74663 34.7012 4.40975 35.0817C3.72097 35.8596 1.93145 35.8384 1.36243 35.7699C1.01731 35.727 0.670739 35.8332 0.410024 36.0632C0.14943 36.293 0 36.6238 0 36.9714C0 38.8055 1.05243 41.3459 5.91943 43.2798V50.6166C5.91943 51.2853 6.46156 51.8275 7.13036 51.8275H37.925C38.5938 51.8275 39.1359 51.2853 39.1359 50.6166V43.2798C44.0028 41.3458 45.0552 38.8053 45.0552 36.9713C45.0552 36.6237 44.9059 36.2929 44.6452 36.0631ZM36.7141 49.4056H8.3413V48.1012H27.3832C28.052 48.1012 28.5941 47.5591 28.5941 46.8903C28.5941 46.2216 28.052 45.6793 27.3832 45.6793H8.3413C8.34166 45.663 8.34166 41.8329 8.3413 41.8167C8.3413 40.5645 9.36006 39.5458 10.6122 39.5458H18.6298C19.0829 41.2747 20.6587 42.554 22.5277 42.554C24.3966 42.554 25.9724 41.2747 26.4256 39.5458H34.4432C35.6953 39.5458 36.7141 40.5645 36.7141 41.8167C36.7137 41.8329 36.7137 49.3893 36.7141 49.4056ZM20.0115 33.5673C15.5677 32.4239 12.4642 28.4159 12.4642 23.8207V20.0159C16.5215 18.781 20.0608 16.2595 22.5547 12.8206L23.5039 12.9882C28.7695 13.9179 32.5913 18.4737 32.5913 23.8207C32.5912 28.4159 29.4875 32.4239 25.0439 33.5673C24.5088 33.705 24.1347 34.1874 24.1347 34.7401V38.5251C24.1347 39.4113 23.4137 40.1322 22.5277 40.1322C21.6415 40.1322 20.9206 39.4113 20.9206 38.5251V34.7401C20.9206 34.1874 20.5466 33.705 20.0115 33.5673ZM39.0024 40.7034C38.5013 38.6514 36.6472 37.124 34.4431 37.124H26.5566V35.6419C31.5806 33.9354 35.0131 29.2026 35.0131 23.8207C35.0131 17.2964 30.3498 11.7376 23.925 10.6032L22.2139 10.3011C21.7446 10.2185 21.27 10.4185 21.0019 10.8129L20.8952 10.97C18.5437 14.4305 15.0142 16.8995 10.9573 17.9221C10.4193 18.0576 10.0423 18.5415 10.0423 19.0962V23.8208C10.0423 29.2027 13.4747 33.9356 18.4988 35.642V37.1241H10.6122C8.40802 37.1241 6.55396 38.6516 6.05287 40.7035C4.76177 40.1136 3.38917 39.273 2.76578 38.1912C3.87863 38.0926 5.28344 37.742 6.21586 36.6954C6.83538 36 7.46543 34.7287 6.94824 32.6219C6.21259 29.6251 6.15338 24.8348 6.15338 24.7889C6.15338 18.3176 7.08205 13.4199 8.99218 9.81598C11.6294 4.8406 16.0682 2.422 22.5622 2.422C29.0562 2.422 33.4949 4.8406 36.1321 9.81598C38.0423 13.42 38.9709 18.3176 38.9709 24.7889C38.9709 25.5504 38.7459 30.0199 38.1069 32.6219C37.5898 34.7286 38.2199 36 38.8394 36.6954C39.7718 37.742 41.1767 38.0926 42.2896 38.1912C41.6661 39.2729 40.2936 40.1134 39.0024 40.7034Z" fill="black"/>
<path d="M20.1891 21.8176C19.7161 21.3446 18.9494 21.3447 18.4766 21.8177C18.2173 22.0768 17.8727 22.2196 17.5062 22.2196C17.1396 22.2196 16.795 22.077 16.5357 21.8177C16.063 21.3448 15.2962 21.3448 14.8232 21.8176C14.3502 22.2906 14.3502 23.0572 14.8231 23.5301C15.5397 24.2468 16.4925 24.6416 17.506 24.6416C18.5196 24.6416 19.4724 24.2468 20.1892 23.5301C20.6621 23.0571 20.662 22.2904 20.1891 21.8176Z" fill="black"/>
<path d="M30.2323 21.8176C29.7594 21.3448 28.9926 21.3448 28.5198 21.8176C28.2605 22.0768 27.9159 22.2196 27.5493 22.2196C27.1826 22.2196 26.8381 22.077 26.5789 21.8177C26.1061 21.3448 25.3393 21.3448 24.8664 21.8176C24.3934 22.2906 24.3934 23.0572 24.8662 23.5301C25.5829 24.2468 26.5356 24.6416 27.5492 24.6416C28.5626 24.6416 29.5155 24.2468 30.2323 23.5302C30.7053 23.0571 30.7051 22.2904 30.2323 21.8176Z" fill="black"/>
<path d="M25.2106 28.7354C24.7376 28.2627 23.9709 28.2627 23.498 28.7354C22.963 29.2705 22.0922 29.2705 21.5571 28.7354C21.0842 28.2627 20.3175 28.2627 19.8446 28.7354C19.3716 29.2085 19.3717 29.9752 19.8446 30.4481C20.5844 31.1877 21.556 31.5575 22.5275 31.5575C23.4992 31.5575 24.4709 31.1878 25.2106 30.4481C25.6835 29.9751 25.6835 29.2083 25.2106 28.7354Z" fill="black"/>
</svg>
